src/icons/svg/command.svg

<?xml version="1.0" encoding="UTF-8"?>
<svg width="40px" height="35px" viewBox="0 0 40 35" version="1.1" xmlns="http://www.w3.org/2000/svg"
>
    <path d="M40,0 L40,34.6666667 L0,34.6666667 L0,0 L40,0 Z M37.3333333,2.66666667 L2.66666667,2.66666667 L2.66666667,32 L37.3333333,32 L37.3333333,2.66666667 Z M11.3066667,12.0906667 C11.7981594,11.909259 12.3490944,12.0037922 12.752,12.3386667 L17.152,16.0613333 C17.9446936,16.724051 18.4027767,17.7041064 18.4027767,18.7373333 C18.4027767,19.7705603 17.9446936,20.7506156 17.152,21.4133333 L12.752,25.136 C12.4901681,25.3599434 12.1578545,25.4845611 11.8133333,25.4880005 C11.19524,25.4885322 10.6431506,25.1015084 10.4328809,24.5202801 C10.2226113,23.9390519 10.3992963,23.288381 10.8746667,22.8933333 L15.2746667,19.168 C15.405039,19.0653584 15.4811368,18.9085951 15.4811368,18.7426667 C15.4811368,18.5767382 15.405039,18.4199749 15.2746667,18.3173333 L10.8746667,14.5946667 C10.4701958,14.2599582 10.275477,13.7345851 10.3641068,13.217119 C10.4527366,12.6996529 10.8111958,12.2690262 11.304,12.088 L11.3066667,12.0906667 Z M30.2133333,22.2613333 C31.023351,22.2613333 31.68,22.9179824 31.68,23.728 C31.68,24.5380176 31.023351,25.1946667 30.2133333,25.1946667 L22.88,25.1946667 C22.0699824,25.1946667 21.4133333,24.5380176 21.4133333,23.728 C21.4133333,22.9179824 22.0699824,22.2613333 22.88,22.2613333 L30.2133333,22.2613333 Z"
          id="形状"></path>
</svg>

<svg width="40" height="35" xmlns="http://www.w3.org/2000/svg"><path d="M40 0v34.667H0V0h40zm-2.667 2.667H2.667V32h34.666V2.667zM11.307 12.09a1.467 1.467 0 0 1 1.445.248l4.4 3.722a3.488 3.488 0 0 1 0 5.352l-4.4 3.723a1.467 1.467 0 0 1-.939.352 1.467 1.467 0 0 1-.938-2.595l4.4-3.725a.541.541 0 0 0 0-.85l-4.4-3.723a1.467 1.467 0 0 1 .429-2.507l.003.003zm18.906 10.17a1.467 1.467 0 0 1 0 2.934H22.88a1.467 1.467 0 0 1 0-2.934h7.333z"/></svg>
